X:1
T:Excerpt from Beethoven's Fifth
T:Movement 1: Allegro con brio Violin and Piano
T:Ludwig van Beethoven
%%score 1 { 2 | 3 }
L:1/8
Q:1/4=151
M:2/4
K:C
V:1 treble nm="Violin" snm="Vln."
V:2 treble nm="Piano" snm="Pno."
V:3 bass 
V:1
"^Allegro" z!ff! E EE | !fermata!C4 | z D DD | B,4- | !fermata!B,4 | z!p! E EE | CF FF | Ec cc | %8
 A4 | z E EE | B,F FF | Ed dd | B4- | Be ed | (c4 | B)e ed | (c4 |!mp!!<(! B)e!mf! ed!<)! | %18
!f! c2 z2 | A2 z2 | !fermata!e4 |] %21
V:2
 z!ff! E EE | !fermata!C4 | z D DD | B,4- | !fermata!B,4 | z4 |!p! C4 | [CE]4 | [CEA]4 | z4 | z4 | %11
 E4 | ([EB]4 | B) z z2 | ([EAc]4 | [^GB]) z z2 | ([EAc]4 |!mp!!<(! [^GB]) z z2!<)! |!f! [EAc]2 z2 | %19
 [CA]2 z2 | !fermata![E^Ge]4 |] %21
V:3
 z!ff! E, E,E, | !fermata!C,4 | z D, D,D, | B,,4- | !fermata!B,,4 | z4 |!p! A,4 | A,4 | B,4 | z4 | %10
 [^G,B,]4 | [^G,B,]4 | [^G,B,]4 | z4 | z C CD | E4 | z C CD | E^G,!mf! G,G, |!f! A,2 z2 | F,2 z2 | %20
 !fermata!E,4 |] %21

